X:176
T:Molly Ban
T:Fair Haired Mary
S:The Bothy Band : Old Hag You Have Killed Me
M:4/4
L:1/8
R:reel
K:Edor
EBBA B2AG | (3FED AD BDAF | EBBA B2Bc | dBA=c BEED |
EBBA B2AG | (3FED AD BDAF | EBBA B2Bc | dBA=c BEE2 ||
e2Be egfe | dBBc d2Bd | e2Be egfe | dBA=c BEE2 |
e2Be egfe | dBBc d2de | f3e defe | dBA=c BEE2 |]
